adobe.svg

<svg viewBox="0 0 24 24" xmlns="http://www.w3.org/2000/svg"><path d="M8.88139 1.37994L0 1.37994L0 22.6201L8.88139 1.37994ZM15.1302 1.37994L24 1.37994L24 22.6201L15.1302 1.37994ZM12.0058 9.20829L17.6586 22.6201L13.9499 22.6201L12.2604 18.35L8.12343 18.35L12.0058 9.20829Z" fill="#fa0c00"/></svg>

<svg viewBox="0 0 24 24" xmlns="http://www.w3.org/2000/svg"><path d="M8.881 1.38H0v21.24L8.881 1.38Zm6.25 0H24v21.24L15.13 1.38Zm-3.125 7.828 5.653 13.412h-3.71l-1.689-4.27H8.123l3.883-9.142Z" fill="#fa0c00"/></svg>
